public/logos/TF.svg

<?xml version="1.0" encoding="UTF-8"?>
<svg xmlns="http://www.w3.org/2000/svg" xmlns:xlink="http://www.w3.org/1999/xlink" width="176pt" height="44.52pt" viewBox="0 0 176 44.52" version="1.1">
<defs>
<clipPath id="clip1">
  <path d="M 123 39 L 176 39 L 176 44.519531 L 123 44.519531 Z M 123 39 "/>
</clipPath>
<clipPath id="clip2">
  <path d="M 165.878906 -0.00390625 C 162.363281 -0.00390625 160.136719 1.613281 157.433594 4.945312 L 129.320312 39.574219 C 125.308594 44.519531 123.941406 44.519531 123.941406 44.519531 L 163.953125 44.519531 L 176 -0.00390625 Z M 165.878906 -0.00390625 "/>
</clipPath>
<clipPath id="clip3">
  <path d="M 123 34 L 176 34 L 176 40 L 123 40 Z M 123 34 "/>
</clipPath>
<clipPath id="clip4">
  <path d="M 165.878906 -0.00390625 C 162.363281 -0.00390625 160.136719 1.613281 157.433594 4.945312 L 129.320312 39.574219 C 125.308594 44.519531 123.941406 44.519531 123.941406 44.519531 L 163.953125 44.519531 L 176 -0.00390625 Z M 165.878906 -0.00390625 "/>
</clipPath>
<clipPath id="clip5">
  <path d="M 123 29 L 176 29 L 176 35 L 123 35 Z M 123 29 "/>
</clipPath>
<clipPath id="clip6">
  <path d="M 165.878906 -0.00390625 C 162.363281 -0.00390625 160.136719 1.613281 157.433594 4.945312 L 129.320312 39.574219 C 125.308594 44.519531 123.941406 44.519531 123.941406 44.519531 L 163.953125 44.519531 L 176 -0.00390625 Z M 165.878906 -0.00390625 "/>
</clipPath>
<clipPath id="clip7">
  <path d="M 123 24 L 176 24 L 176 30 L 123 30 Z M 123 24 "/>
</clipPath>
<clipPath id="clip8">
  <path d="M 165.878906 -0.00390625 C 162.363281 -0.00390625 160.136719 1.613281 157.433594 4.945312 L 129.320312 39.574219 C 125.308594 44.519531 123.941406 44.519531 123.941406 44.519531 L 163.953125 44.519531 L 176 -0.00390625 Z M 165.878906 -0.00390625 "/>
</clipPath>
<clipPath id="clip9">
  <path d="M 123 19 L 176 19 L 176 25 L 123 25 Z M 123 19 "/>
</clipPath>
<clipPath id="clip10">
  <path d="M 165.878906 -0.00390625 C 162.363281 -0.00390625 160.136719 1.613281 157.433594 4.945312 L 129.320312 39.574219 C 125.308594 44.519531 123.941406 44.519531 123.941406 44.519531 L 163.953125 44.519531 L 176 -0.00390625 Z M 165.878906 -0.00390625 "/>
</clipPath>
<clipPath id="clip11">
  <path d="M 123 14 L 176 14 L 176 20 L 123 20 Z M 123 14 "/>
</clipPath>
<clipPath id="clip12">
  <path d="M 165.878906 -0.00390625 C 162.363281 -0.00390625 160.136719 1.613281 157.433594 4.945312 L 129.320312 39.574219 C 125.308594 44.519531 123.941406 44.519531 123.941406 44.519531 L 163.953125 44.519531 L 176 -0.00390625 Z M 165.878906 -0.00390625 "/>
</clipPath>
<clipPath id="clip13">
  <path d="M 123 9 L 176 9 L 176 15 L 123 15 Z M 123 9 "/>
</clipPath>
<clipPath id="clip14">
  <path d="M 165.878906 -0.00390625 C 162.363281 -0.00390625 160.136719 1.613281 157.433594 4.945312 L 129.320312 39.574219 C 125.308594 44.519531 123.941406 44.519531 123.941406 44.519531 L 163.953125 44.519531 L 176 -0.00390625 Z M 165.878906 -0.00390625 "/>
</clipPath>
<clipPath id="clip15">
  <path d="M 123 4 L 176 4 L 176 10 L 123 10 Z M 123 4 "/>
</clipPath>
<clipPath id="clip16">
  <path d="M 165.878906 -0.00390625 C 162.363281 -0.00390625 160.136719 1.613281 157.433594 4.945312 L 129.320312 39.574219 C 125.308594 44.519531 123.941406 44.519531 123.941406 44.519531 L 163.953125 44.519531 L 176 -0.00390625 Z M 165.878906 -0.00390625 "/>
</clipPath>
<clipPath id="clip17">
  <path d="M 123 0.0195312 L 176 0.0195312 L 176 5 L 123 5 Z M 123 0.0195312 "/>
</clipPath>
<clipPath id="clip18">
  <path d="M 165.878906 -0.00390625 C 162.363281 -0.00390625 160.136719 1.613281 157.433594 4.945312 L 129.320312 39.574219 C 125.308594 44.519531 123.941406 44.519531 123.941406 44.519531 L 163.953125 44.519531 L 176 -0.00390625 Z M 165.878906 -0.00390625 "/>
</clipPath>
<clipPath id="clip19">
  <path d="M 0 4 L 119 4 L 119 44.519531 L 0 44.519531 Z M 0 4 "/>
</clipPath>
</defs>
<g id="surface1">
<g clip-path="url(#clip1)" clip-rule="nonzero">
<g clip-path="url(#clip2)" clip-rule="nonzero">
<path style=" stroke:none;fill-rule:nonzero;fill:rgb(69.136047%,68.986511%,68.397522%);fill-opacity:1;" d="M 176 44.519531 L 123.941406 44.519531 L 123.941406 39.574219 L 176 39.574219 L 176 44.519531 "/>
</g>
</g>
<g clip-path="url(#clip3)" clip-rule="nonzero">
<g clip-path="url(#clip4)" clip-rule="nonzero">
<path style=" stroke:none;fill-rule:nonzero;fill:rgb(22.084045%,55.28717%,73.326111%);fill-opacity:1;" d="M 176 39.574219 L 123.941406 39.574219 L 123.941406 34.628906 L 176 34.628906 L 176 39.574219 "/>
</g>
</g>
<g clip-path="url(#clip5)" clip-rule="nonzero">
<g clip-path="url(#clip6)" clip-rule="nonzero">
<path style=" stroke:none;fill-rule:nonzero;fill:rgb(52.435303%,78.269958%,15.107727%);fill-opacity:1;" d="M 176 34.625 L 123.941406 34.625 L 123.941406 29.679688 L 176 29.679688 L 176 34.625 "/>
</g>
</g>
<g clip-path="url(#clip7)" clip-rule="nonzero">
<g clip-path="url(#clip8)" clip-rule="nonzero">
<path style=" stroke:none;fill-rule:nonzero;fill:rgb(35.461426%,52.000427%,80.000305%);fill-opacity:1;" d="M 176 29.679688 L 123.941406 29.679688 L 123.941406 24.730469 L 176 24.730469 L 176 29.679688 "/>
</g>
</g>
<g clip-path="url(#clip9)" clip-rule="nonzero">
<g clip-path="url(#clip10)" clip-rule="nonzero">
<path style=" stroke:none;fill-rule:nonzero;fill:rgb(94.877625%,52.757263%,7.426453%);fill-opacity:1;" d="M 176 24.730469 L 123.941406 24.730469 L 123.941406 19.785156 L 176 19.785156 L 176 24.730469 "/>
</g>
</g>
<g clip-path="url(#clip11)" clip-rule="nonzero">
<g clip-path="url(#clip12)" clip-rule="nonzero">
<path style=" stroke:none;fill-rule:nonzero;fill:rgb(27.062988%,68.075562%,84.042358%);fill-opacity:1;" d="M 176 19.785156 L 123.941406 19.785156 L 123.941406 14.835938 L 176 14.835938 L 176 19.785156 "/>
</g>
</g>
<g clip-path="url(#clip13)" clip-rule="nonzero">
<g clip-path="url(#clip14)" clip-rule="nonzero">
<path style=" stroke:none;fill-rule:nonzero;fill:rgb(61.341858%,8.72345%,24.079895%);fill-opacity:1;" d="M 176 14.835938 L 123.941406 14.835938 L 123.941406 9.890625 L 176 9.890625 L 176 14.835938 "/>
</g>
</g>
<g clip-path="url(#clip15)" clip-rule="nonzero">
<g clip-path="url(#clip16)" clip-rule="nonzero">
<path style=" stroke:none;fill-rule:nonzero;fill:rgb(97.807312%,82.995605%,2.307129%);fill-opacity:1;" d="M 176 9.890625 L 123.941406 9.890625 L 123.941406 4.945312 L 176 4.945312 L 176 9.890625 "/>
</g>
</g>
<g clip-path="url(#clip17)" clip-rule="nonzero">
<g clip-path="url(#clip18)" clip-rule="nonzero">
<path style=" stroke:none;fill-rule:nonzero;fill:rgb(13.606262%,30.914307%,57.113647%);fill-opacity:1;" d="M 176 4.941406 L 123.941406 4.941406 L 123.941406 -0.00390625 L 176 -0.00390625 L 176 4.941406 "/>
</g>
</g>
<g clip-path="url(#clip19)" clip-rule="nonzero">
<path style=" stroke:none;fill-rule:nonzero;fill:rgb(69.136047%,68.986511%,68.397522%);fill-opacity:1;" d="M 114.128906 10.570312 C 113.660156 7.394531 111.417969 5.3125 108.804688 5.007812 C 106.175781 4.695312 103.34375 5.414062 100.414062 9.714844 L 76.617188 44.519531 L 86.449219 44.519531 L 92.40625 35.453125 L 108.457031 35.453125 L 109.546875 44.519531 L 118.984375 44.519531 Z M 96.925781 28.570312 L 105.972656 14.800781 L 107.628906 28.570312 Z M 68.40625 31.84375 C 75.9375 31.335938 81.738281 26.507812 82.960938 18.257812 C 84.082031 10.714844 77.78125 4.941406 69.347656 4.941406 L 50.371094 4.941406 L 39.664062 44.519531 L 48.863281 44.519531 L 57.410156 13.253906 L 69.136719 13.253906 C 71.875 13.253906 74.820312 15.742188 73.976562 18.820312 C 73.214844 21.601562 70.296875 23.820312 67.792969 23.820312 L 60.140625 23.820312 C 58.246094 23.820312 56.714844 25.378906 56.714844 27.269531 C 56.714844 27.738281 56.808594 28.1875 56.984375 28.601562 L 65.453125 44.519531 L 75.039062 44.519531 L 68.15625 31.859375 C 68.238281 31.855469 68.320312 31.851562 68.40625 31.84375 M 35.054688 24.820312 C 39.660156 22.800781 41.671875 19.832031 42.035156 15.261719 C 42.523438 9.109375 37.46875 4.941406 31.117188 4.941406 L 10.710938 4.941406 L 0 44.519531 L 25.53125 44.519531 C 31.441406 44.519531 37.519531 39.835938 39.089844 34.101562 C 40.296875 29.679688 38.890625 26.40625 35.054688 24.820312 M 28.90625 32.890625 C 28.292969 35.042969 25.96875 36.789062 23.824219 36.789062 L 11.167969 36.789062 L 13.476562 28.476562 L 25.871094 28.476562 C 28.230469 28.476562 29.59375 30.480469 28.90625 32.890625 M 31.433594 17.726562 C 30.796875 20.046875 28.707031 21.898438 26.621094 21.898438 L 15.300781 21.898438 L 17.75 13.082031 L 28.632812 13.082031 C 30.917969 13.082031 32.136719 15.15625 31.433594 17.726562 "/>
</g>
</g>
</svg>

<svg xmlns="http://www.w3.org/2000/svg" width="176pt" height="59.36" viewBox="0 0 176 44.52"><defs><clipPath id="a"><path d="M123 39h53v5.52h-53Zm0 0"/></clipPath><clipPath id="b"><path d="M165.879-.004c-3.516 0-5.742 1.617-8.445 4.95L129.32 39.573c-4.011 4.946-5.379 4.946-5.379 4.946h40.012L176-.004Zm0 0"/></clipPath><clipPath id="c"><path d="M123 34h53v6h-53Zm0 0"/></clipPath><clipPath id="d"><path d="M165.879-.004c-3.516 0-5.742 1.617-8.445 4.95L129.32 39.573c-4.011 4.946-5.379 4.946-5.379 4.946h40.012L176-.004Zm0 0"/></clipPath><clipPath id="e"><path d="M123 29h53v6h-53Zm0 0"/></clipPath><clipPath id="f"><path d="M165.879-.004c-3.516 0-5.742 1.617-8.445 4.95L129.32 39.573c-4.011 4.946-5.379 4.946-5.379 4.946h40.012L176-.004Zm0 0"/></clipPath><clipPath id="g"><path d="M123 24h53v6h-53Zm0 0"/></clipPath><clipPath id="h"><path d="M165.879-.004c-3.516 0-5.742 1.617-8.445 4.95L129.32 39.573c-4.011 4.946-5.379 4.946-5.379 4.946h40.012L176-.004Zm0 0"/></clipPath><clipPath id="i"><path d="M123 19h53v6h-53Zm0 0"/></clipPath><clipPath id="j"><path d="M165.879-.004c-3.516 0-5.742 1.617-8.445 4.95L129.32 39.573c-4.011 4.946-5.379 4.946-5.379 4.946h40.012L176-.004Zm0 0"/></clipPath><clipPath id="k"><path d="M123 14h53v6h-53Zm0 0"/></clipPath><clipPath id="l"><path d="M165.879-.004c-3.516 0-5.742 1.617-8.445 4.95L129.32 39.573c-4.011 4.946-5.379 4.946-5.379 4.946h40.012L176-.004Zm0 0"/></clipPath><clipPath id="m"><path d="M123 9h53v6h-53Zm0 0"/></clipPath><clipPath id="n"><path d="M165.879-.004c-3.516 0-5.742 1.617-8.445 4.95L129.32 39.573c-4.011 4.946-5.379 4.946-5.379 4.946h40.012L176-.004Zm0 0"/></clipPath><clipPath id="o"><path d="M123 4h53v6h-53Zm0 0"/></clipPath><clipPath id="p"><path d="M165.879-.004c-3.516 0-5.742 1.617-8.445 4.95L129.32 39.573c-4.011 4.946-5.379 4.946-5.379 4.946h40.012L176-.004Zm0 0"/></clipPath><clipPath id="q"><path d="M123 .02h53V5h-53Zm0 0"/></clipPath><clipPath id="r"><path d="M165.879-.004c-3.516 0-5.742 1.617-8.445 4.95L129.32 39.573c-4.011 4.946-5.379 4.946-5.379 4.946h40.012L176-.004Zm0 0"/></clipPath><clipPath id="s"><path d="M0 4h119v40.52H0Zm0 0"/></clipPath></defs><g clip-path="url(#a)"><g clip-path="url(#b)"><path d="M176 44.52h-52.059v-4.946H176z" style="stroke:none;fill-rule:nonzero;fill:#b0b0ae;fill-opacity:1"/></g></g><g clip-path="url(#c)"><g clip-path="url(#d)"><path d="M176 39.574h-52.059V34.63H176z" style="stroke:none;fill-rule:nonzero;fill:#388dbb;fill-opacity:1"/></g></g><g clip-path="url(#e)"><g clip-path="url(#f)"><path d="M176 34.625h-52.059V29.68H176z" style="stroke:none;fill-rule:nonzero;fill:#86c827;fill-opacity:1"/></g></g><g clip-path="url(#g)"><g clip-path="url(#h)"><path d="M176 29.68h-52.059v-4.95H176z" style="stroke:none;fill-rule:nonzero;fill:#5a85cc;fill-opacity:1"/></g></g><g clip-path="url(#i)"><g clip-path="url(#j)"><path d="M176 24.73h-52.059v-4.945H176z" style="stroke:none;fill-rule:nonzero;fill:#f28713;fill-opacity:1"/></g></g><g clip-path="url(#k)"><g clip-path="url(#l)"><path d="M176 19.785h-52.059v-4.95H176z" style="stroke:none;fill-rule:nonzero;fill:#45aed6;fill-opacity:1"/></g></g><g clip-path="url(#m)"><g clip-path="url(#n)"><path d="M176 14.836h-52.059V9.89H176z" style="stroke:none;fill-rule:nonzero;fill:#9c163d;fill-opacity:1"/></g></g><g clip-path="url(#o)"><g clip-path="url(#p)"><path d="M176 9.89h-52.059V4.946H176z" style="stroke:none;fill-rule:nonzero;fill:#f9d406;fill-opacity:1"/></g></g><g clip-path="url(#q)"><g clip-path="url(#r)"><path d="M176 4.941h-52.059V-.004H176z" style="stroke:none;fill-rule:nonzero;fill:#234f92;fill-opacity:1"/></g></g><g clip-path="url(#s)"><path d="M114.129 10.57c-.469-3.175-2.711-5.257-5.324-5.562-2.63-.313-5.461.406-8.39 4.707L76.616 44.52h9.832l5.957-9.067h16.051l1.09 9.067h9.437Zm-17.203 18 9.047-13.77 1.656 13.77Zm-28.52 3.274c7.531-.508 13.332-5.336 14.555-13.586C84.082 10.715 77.78 4.94 69.348 4.94H50.37L39.664 44.52h9.2l8.546-31.266h11.727c2.738 0 5.683 2.488 4.84 5.566-.762 2.782-3.68 5-6.184 5h-7.652c-1.895 0-3.426 1.559-3.426 3.45 0 .468.094.918.27 1.332l8.468 15.918h9.586l-6.883-12.66q.122-.006.25-.016M35.055 24.82c4.605-2.02 6.617-4.988 6.98-9.558.488-6.153-4.566-10.32-10.918-10.32H10.711L0 44.52h25.531c5.91 0 11.989-4.684 13.559-10.418 1.207-4.422-.2-7.696-4.035-9.282m-6.149 8.07c-.613 2.153-2.937 3.9-5.082 3.9H11.168l2.309-8.313H25.87c2.36 0 3.723 2.003 3.035 4.414m2.528-15.164c-.637 2.32-2.727 4.171-4.813 4.171h-11.32l2.449-8.816h10.883c2.285 0 3.504 2.074 2.8 4.645" style="stroke:none;fill-rule:nonzero;fill:#b0b0ae;fill-opacity:1"/></g></svg>
